public/images/date-rings-large.svg

<?xml version="1.0" encoding="utf-8"?>
<svg width="150" height="108" viewBox="0 0 150 108" fill="none" xmlns="http://www.w3.org/2000/svg">
  <defs/>
  <path d="M92.1491 104.635C81.8086 103.139 76.5349 98.7 73.1214 90.8122C69.4466 81.8883 70.872 74.4722 70.7984 74.8632C71.3191 71.1674 72.5306 67.7486 75.0271 64.954C77.4133 68.1869 77.8621 69.7385 78.4214 71.4918C75.9476 73.7762 71.0859 92.3884 89.365 98.6369C110.49 105.855 123.705 77.4738 104.124 66.2496C99.7826 63.7793 94.516 62.6696 89.8349 64.6752C88.7408 61.6159 87.6048 59.5436 86.2337 57.4765C87.987 56.6595 93.1099 52.2046 105.419 57.352C129.531 67.8994 126.27 109.018 92.1491 104.635ZM71.0684 92.5304C63.1192 96.9643 53.9955 95.4267 46.7266 89.9304C34.4453 80.3648 38.4409 68.2219 37.822 71.5338C39.9662 56.3228 60.1247 48.9558 73.3791 63.0535C66.3907 70.6888 67.0044 83.4645 71.0684 92.5304ZM79.3629 75.7942C79.6153 78.5011 79.4733 81.1607 78.6774 83.7625C78.2022 80.8504 78.6475 78.2119 79.3629 75.7942ZM100.805 67.5294C122.531 76.9495 106.669 106.905 85.8428 94.2082C91.9773 86.3871 93.1257 76.292 90.6221 67.1244C93.9637 65.6956 97.393 66.1689 100.805 67.5294ZM29.8378 77.8892C30.7583 83.084 24.4379 57.1802 46.6267 47.6585C49.0567 46.6679 51.6795 45.949 54.4162 45.5774C54.3829 45.5826 54.3479 45.5896 54.3145 45.5949C58.8326 45.0479 62.5249 45.6335 62.3338 45.5984C67.9318 46.3786 72.8216 48.4071 77.2502 51.7382C77.2274 51.7189 77.2047 51.6996 77.1819 51.6803C77.2345 51.7207 77.4168 51.8627 77.4553 51.8925C77.4343 51.8784 77.415 51.8627 77.3958 51.8486C93.72 64.7261 88.1079 84.6725 88.9688 79.8406C87.8467 88.0948 83.7617 92.4375 84.2561 91.8537C83.9808 92.2008 83.8774 92.3183 83.66 92.6321C81.912 91.1121 80.4937 89.4114 79.5908 87.1358C79.9116 87.0446 80.2482 86.836 80.3727 86.5467C88.4218 67.9538 68.3789 47.6742 49.9035 54.0489C27.8847 61.6842 31.719 90.4598 54.8686 96.7767C60.4929 98.3248 66.5485 97.8812 72.1939 94.7956C73.1722 96.5996 74.1645 98.0706 75.8406 99.8466C56.869 108.476 32.7061 98.8157 29.8378 77.8892ZM106.466 54.9203C95.5381 50.2181 87.0402 52.9444 84.7803 55.4655C74.6309 42.6056 56.8322 39.1395 43.001 46.4277C13.1664 62.1804 27.0975 112.137 67.9423 104.968C71.3979 104.365 74.8641 103.183 77.8849 101.705C87.5487 109.309 105.165 109.616 114.829 101.873C128.264 91.098 126.781 63.6671 106.466 54.9203Z" fill="#734D37"/>
  <path d="M17.1745 56.5736C14.8392 55.4849 12.5109 54.4084 10.1213 53.4582C8.63629 52.8901 7.50898 55.3411 9.40246 56.0599C11.8044 57.0137 13.9819 57.9551 15.8526 58.8335C16.6468 59.1964 17.3077 58.9352 17.6409 58.3619C17.9757 57.7921 17.8179 56.8752 17.1745 56.5736Z" fill="#734D37"/>
  <path d="M11.4607 66.0202C10.3264 65.8536 7.93321 65.3539 7.93321 65.3539C6.25362 65.3539 6.00117 67.6892 7.54576 68.103C9.92839 68.7412 12.3934 68.9867 14.8532 69.0147C15.6053 69.0217 16.2365 68.3783 16.2365 67.6314C16.2365 65.8659 14.4044 66.3761 11.4607 66.0202Z" fill="#734D37"/>
  <path d="M14.5918 77.7085C13.9536 77.7085 9.83529 78.7131 9.19711 78.8779C7.44039 79.3302 8.0803 82.0845 9.95099 81.6041C11.6078 81.1939 13.2716 80.81 14.9494 80.4804C15.7033 80.3314 16.1276 79.4407 15.9365 78.7342C15.7805 78.1679 15.258 77.7085 14.5918 77.7085Z" fill="#734D37"/>
  <path d="M139.246 63.9598C139.832 63.7126 140.423 63.4812 141.022 63.255C141.866 62.9342 142.146 62.2504 141.967 61.5842C141.461 59.7661 139.813 60.5288 131.606 64.5437C130.941 64.8715 130.763 65.8024 131.12 66.4055C132.072 68.0343 133.41 66.4634 139.246 63.9598Z" fill="#734D37"/>
  <path d="M134.23 73.9445C133.344 74.0111 132.88 74.6108 132.88 75.2945C132.88 77.188 134.6 76.6936 142.133 75.8695C143.049 75.7661 143.482 75.1876 143.482 74.5196C143.482 72.4771 141.664 73.3467 134.23 73.9445Z" fill="#734D37"/>
  <path d="M133.804 84.2204C132.148 83.2964 130.892 85.7474 132.416 86.5978C134.921 87.9968 141.496 90.2725 141.496 87.406C141.496 85.0602 138.866 87.0413 133.804 84.2204Z" fill="#734D37"/>
  <text style="fill: rgb(0, 0, 0); font-family: 'Devanagari MT'; font-size: 28px; font-weight: 700; white-space: pre;" x="4.585" y="35.866" transform="matrix(0.947295, 0, 0, 0.845435, 4.686935, 1.181175)">01 / 03 / 25</text>
</svg>

<?xml version="1.0"?>
<svg width="150" height="108" xmlns="http://www.w3.org/2000/svg" xmlns:svg="http://www.w3.org/2000/svg">

 <g class="layer">
  <title>Layer 1</title>
  <path d="m92.15,104.64c-10.34,-1.5 -15.62,-5.94 -19.03,-13.83c-3.67,-8.92 -2.25,-16.34 -2.32,-15.95c0.52,-3.69 1.73,-7.11 4.23,-9.91c2.38,3.24 2.83,4.79 3.39,6.54c-2.47,2.29 -7.33,20.9 10.94,27.15c21.13,7.22 34.34,-21.17 14.76,-32.39c-4.34,-2.47 -9.6,-3.58 -14.29,-1.57c-1.09,-3.06 -2.23,-5.14 -3.6,-7.2c1.76,-0.82 6.88,-5.28 19.19,-0.13c24.11,10.55 20.85,51.67 -13.27,47.29zm-21.08,-12.11c-7.95,4.43 -17.07,2.9 -24.34,-2.6c-12.28,-9.57 -8.29,-21.71 -8.91,-18.4c2.15,-15.21 22.3,-22.57 35.56,-8.48c-6.99,7.64 -6.38,20.41 -2.31,29.48zm8.29,-16.74c0.26,2.71 0.11,5.37 -0.68,7.97c-0.48,-2.91 -0.03,-5.55 0.68,-7.97zm21.45,-8.26c21.72,9.42 5.86,39.38 -14.97,26.68c6.14,-7.82 7.29,-17.92 4.78,-27.09c3.34,-1.42 6.77,-0.95 10.19,0.41zm-70.97,10.36c0.92,5.19 -5.4,-20.71 16.79,-30.23c2.43,-0.99 5.05,-1.71 7.79,-2.08c-0.04,0 -0.07,0.01 -0.11,0.01c4.52,-0.54 8.21,0.04 8.02,0.01c5.6,0.78 10.49,2.81 14.92,6.14c-0.02,-0.02 -0.05,-0.04 -0.07,-0.06c0.05,0.04 0.24,0.18 0.28,0.21c-0.03,-0.01 -0.04,-0.03 -0.06,-0.04c16.32,12.88 10.71,32.82 11.57,27.99c-1.12,8.25 -5.21,12.6 -4.71,12.01c-0.28,0.35 -0.38,0.47 -0.6,0.78c-1.75,-1.52 -3.17,-3.22 -4.07,-5.49c0.32,-0.1 0.66,-0.3 0.78,-0.59c8.05,-18.6 -11.99,-38.88 -30.47,-32.5c-22.02,7.63 -18.18,36.41 4.97,42.73c5.62,1.54 11.68,1.1 17.32,-1.98c0.98,1.8 1.97,3.27 3.65,5.05c-18.97,8.63 -43.13,-1.03 -46,-21.96zm76.63,-22.97c-10.93,-4.7 -19.43,-1.98 -21.69,0.55c-10.15,-12.86 -27.95,-16.33 -41.78,-9.04c-29.83,15.75 -15.9,65.71 24.94,58.54c3.46,-0.61 6.92,-1.79 9.94,-3.27c9.67,7.61 27.29,7.92 36.95,0.17c13.43,-10.77 11.95,-38.2 -8.36,-46.95z" fill="#734D37" id="svg_1"/>
  <path d="m17.17,56.57c-2.33,-1.09 -4.66,-2.16 -7.05,-3.11c-1.48,-0.57 -2.61,1.88 -0.72,2.6c2.4,0.95 4.58,1.9 6.45,2.77c0.8,0.37 1.46,0.11 1.79,-0.47c0.34,-0.57 0.18,-1.48 -0.47,-1.79z" fill="#734D37" id="svg_2"/>
  <path d="m11.46,66.02c-1.13,-0.17 -3.53,-0.67 -3.53,-0.67c-1.68,0 -1.93,2.34 -0.38,2.75c2.38,0.64 4.84,0.89 7.3,0.91c0.76,0.01 1.39,-0.63 1.39,-1.38c0,-1.76 -1.84,-1.25 -4.78,-1.61z" fill="#734D37" id="svg_3"/>
  <path d="m14.59,77.71c-0.64,0 -4.75,1 -5.39,1.17c-1.76,0.45 -1.12,3.2 0.75,2.72c1.66,-0.41 3.32,-0.79 5,-1.12c0.75,-0.15 1.18,-1.04 0.99,-1.75c-0.16,-0.56 -0.68,-1.02 -1.35,-1.02z" fill="#734D37" id="svg_4"/>
  <path d="m139.25,63.96c0.58,-0.25 1.17,-0.48 1.77,-0.7c0.85,-0.33 1.13,-1.01 0.95,-1.68c-0.51,-1.81 -2.16,-1.05 -10.36,2.96c-0.67,0.33 -0.85,1.26 -0.49,1.87c0.95,1.62 2.29,0.05 8.13,-2.45z" fill="#734D37" id="svg_5"/>
  <path d="m134.23,73.94c-0.89,0.07 -1.35,0.67 -1.35,1.35c0,1.9 1.72,1.4 9.25,0.58c0.92,-0.1 1.35,-0.68 1.35,-1.35c0,-2.04 -1.82,-1.17 -9.25,-0.58z" fill="#734D37" id="svg_6"/>
  <path d="m133.8,84.22c-1.65,-0.92 -2.91,1.53 -1.38,2.38c2.5,1.4 9.08,3.67 9.08,0.81c0,-2.35 -2.63,-0.37 -7.7,-3.19z" fill="#734D37" id="svg_7"/>
  <text fill="rgb(0, 0, 0)" font-family="&#x27;Devanagari MT&#x27;" font-size="28px" font-weight="700" id="svg_8" style="cursor: move;" transform="matrix(0.947295 0 0 0.845435 4.68693 1.18117)" x="4.58" y="34.68">02 / 03 / 25</text>
 </g>
</svg>
